svg/messages.svg

<svg xmlns="http://www.w3.org/2000/svg" viewBox="0 0 64 64" enable-background="new 0 0 64 64"><style type="text/css">.st0{fill:#343434;}</style><title>messages</title><desc>Created with Sketch.</desc><path class="st0" d="M64 19.2c0-10.6-10.7-19.2-24-19.2-12.3 0-22.5 7.5-23.8 17.1-9.4 2.6-16.2 9.7-16.2 18.1 0 6.4 3.9 12 9.9 15.5.7.4-3.6 12.8-1.8 13.2 2.2.5 13.5-9.6 15.9-9.6 10.2 0 18.9-5.1 22.4-12.2 3.9 2.8 8.3 6.1 9.6 5.8 1.8-.4-2.5-12.8-1.8-13.2 5.9-3.4 9.8-9.1 9.8-15.5zm-40 31.2c-2.3 0-3.1.5-10.1 5.5-.1 0-.1 0-.1.1-.3.2-.7.5-.9.7.1-.6.3-1.4.4-1.5.2-.8.3-1.3.4-1.8.1-.7.2-1.2.3-1.7 0-.4.1-.8 0-1.1 0-.4-.1-.8-.3-1.2-.3-.8-.9-1.6-1.8-2.1-5-2.9-7.9-7.4-7.9-12.1 0-8.1 8.7-15.1 19.7-15.2 10.9.1 19.8 7.1 20.2 15.8-.3 7.9-9 14.6-19.9 14.6zm28.1-19.1c-.9.5-1.5 1.3-1.8 2.1-.2.4-.2.8-.3 1.2v1.1c.1.5.1 1 .3 1.7.1.5.2 1.1.4 1.8 0 .1.2.9.4 1.5-.3-.2-.6-.4-.9-.7-.1 0-.1 0-.1-.1-.9-.7-1.7-1.2-2.2-1.6.1-.6.1-1.3.1-2v-1.2c0-10.5-10.7-19.1-24-19.1h-.5c-1 0-2.1.1-3.1.2 1.9-6.8 9.8-12.2 19.6-12.2 11.2 0 20 7 20 15.2 0 4.7-2.9 9.2-7.9 12.1z"/></svg>

<?xml version="1.0" encoding="utf-8"?>
<!-- Generator: Adobe Illustrator 21.0.0, SVG Export Plug-In . SVG Version: 6.00 Build 0)  -->
<svg version="1.1" id="Layer_1" xmlns="http://www.w3.org/2000/svg" xmlns:xlink="http://www.w3.org/1999/xlink" x="0px" y="0px"
	 viewBox="0 0 64 64" style="enable-background:new 0 0 64 64;" xml:space="preserve">
<style type="text/css">
	.st0{fill:#343434;}
</style>
<title>messages</title>
<desc>Created with Sketch.</desc>
<path class="st0" d="M64,19.2C64,8.6,53.3,0,40,0C27.7,0,17.5,7.5,16.2,17.1C6.8,19.7,0,26.8,0,35.2c0,6.4,3.9,12,9.9,15.5
	c0.7,0.4-3.6,12.8-1.8,13.2c2.2,0.5,13.5-9.6,15.9-9.6c10.2,0,18.9-5.1,22.4-12.2c3.9,2.8,8.3,6.1,9.6,5.8
	c1.8-0.4-2.5-12.8-1.8-13.2C60.1,31.3,64,25.6,64,19.2z M24,50.4c-2.3,0-3.1,0.5-10.1,5.5c-0.1,0-0.1,0-0.1,0.1
	c-0.3,0.2-0.7,0.5-0.9,0.7c0.1-0.6,0.3-1.4,0.4-1.5c0.2-0.8,0.3-1.3,0.4-1.8c0.1-0.7,0.2-1.2,0.3-1.7c0-0.4,0.1-0.8,0-1.1
	c0-0.4-0.1-0.8-0.3-1.2c-0.3-0.8-0.9-1.6-1.8-2.1C6.9,44.4,4,39.9,4,35.2c0-8.1,8.7-15.1,19.7-15.2c10.9,0.1,19.8,7.1,20.2,15.8
	C43.6,43.7,34.9,50.4,24,50.4z M52.1,31.3c-0.9,0.5-1.5,1.3-1.8,2.1c-0.2,0.4-0.2,0.8-0.3,1.2c0,0.4,0,0.8,0,1.1
	c0.1,0.5,0.1,1,0.3,1.7c0.1,0.5,0.2,1.1,0.4,1.8c0,0.1,0.2,0.9,0.4,1.5c-0.3-0.2-0.6-0.4-0.9-0.7c-0.1,0-0.1,0-0.1-0.1
	c-0.9-0.7-1.7-1.2-2.2-1.6c0.1-0.6,0.1-1.3,0.1-2c0-0.2,0-0.4,0-0.6c0-0.2,0-0.4,0-0.6C48,24.6,37.3,16,24,16c-0.1,0-0.2,0-0.3,0
	c-0.1,0-0.2,0-0.2,0c-1,0-2.1,0.1-3.1,0.2C22.3,9.4,30.2,4,40,4c11.2,0,20,7,20,15.2C60,23.9,57.1,28.4,52.1,31.3z"/>
</svg>
